img/twitter.svg

<svg fill="none" height="24" viewBox="0 0 24 24" width="24" xmlns="http://www.w3.org/2000/svg"><path d="m23 3.00005c-.9576.67547-2.0179 1.19211-3.14 1.53-.6023-.69249-1.4027-1.18331-2.293-1.40608-.8903-.22276-1.8275-.16673-2.6849.16053s-1.5937.90995-2.1091 1.66926c-.5155.75932-.7853 1.65862-.773 2.57629v1c-1.7574.04556-3.49873-.34419-5.06899-1.13456-1.57027-.79036-3.42069-2.67236-4.43101-4.11099 0 0-3.5 9.7155 5.5 13.7155-2.05947 1.398-4.51284 2.099-7 2 9 5 20 0 20-11.49995-.0009-.27855-.0277-.55641-.08-.83 1.0206-1.00651 1.7408-2.27729 2.08-3.67z" stroke="#111" stroke-linecap="round" stroke-linejoin="round" stroke-width="2"/></svg>

<svg width="24" height="24" viewBox="0 0 24 24" fill="none" xmlns="http://www.w3.org/2000/svg">
<path d="M23 3.00005C22.0424 3.67552 20.9821 4.19216 19.86 4.53005C19.2577 3.83756 18.4573 3.34674 17.567 3.12397C16.6767 2.90121 15.7395 2.95724 14.8821 3.2845C14.0247 3.61176 13.2884 4.19445 12.773 4.95376C12.2575 5.71308 11.9877 6.61238 12 7.53005V8.53005C10.2426 8.57561 8.50127 8.18586 6.93101 7.39549C5.36074 6.60513 3.51032 4.72313 2.5 3.2845C2.5 3.2845 -1 13 8 17C5.94053 18.398 3.48716 19.099 1 19C10 24 21 19 21 7.50005C20.9991 7.2215 20.9723 6.94364 20.92 6.67005C21.9406 5.66354 22.6608 4.39276 23 3.00005Z" stroke="#111111" stroke-width="2" stroke-linecap="round" stroke-linejoin="round"/>
</svg>
